static/img/icon-edit.svg

<?xml version="1.0" encoding="UTF-8" standalone="no"?>
<svg
   xmlns:osb="http://www.openswatchbook.org/uri/2009/osb"
   xmlns:dc="http://purl.org/dc/elements/1.1/"
   xmlns:cc="http://creativecommons.org/ns#"
   xmlns:rdf="http://www.w3.org/1999/02/22-rdf-syntax-ns#"
   xmlns:svg="http://www.w3.org/2000/svg"
   xmlns="http://www.w3.org/2000/svg"
   xmlns:xlink="http://www.w3.org/1999/xlink"
   xmlns:sodipodi="http://sodipodi.sourceforge.net/DTD/sodipodi-0.dtd"
   xmlns:inkscape="http://www.inkscape.org/namespaces/inkscape"
   width="32"
   height="32"
   viewBox="0 0 15 15"
   version="1.1"
   id="svg1375"
   sodipodi:docname="icon-edit.svg"
   inkscape:version="0.92.4 (0.92.4+202003022015+8da6682)">
  <metadata
     id="metadata1379">
    <rdf:RDF>
      <cc:Work
         rdf:about="">
        <dc:format>image/svg+xml</dc:format>
        <dc:type
           rdf:resource="http://purl.org/dc/dcmitype/StillImage" />
        <dc:title></dc:title>
      </cc:Work>
    </rdf:RDF>
  </metadata>
  <sodipodi:namedview
     pagecolor="#ffffff"
     bordercolor="#666666"
     borderopacity="1"
     objecttolerance="10"
     gridtolerance="10"
     guidetolerance="10"
     inkscape:pageopacity="0"
     inkscape:pageshadow="2"
     inkscape:window-width="1920"
     inkscape:window-height="991"
     id="namedview1377"
     showgrid="false"
     inkscape:zoom="20.85965"
     inkscape:cx="17.041704"
     inkscape:cy="16.240724"
     inkscape:window-x="1360"
     inkscape:window-y="0"
     inkscape:window-maximized="1"
     inkscape:current-layer="svg1375" />
  <defs
     id="defs1365">
    <linearGradient
       inkscape:collect="always"
       id="linearGradient2100">
      <stop
         style="stop-color:#ffccaa;stop-opacity:1"
         offset="0"
         id="stop2096" />
      <stop
         style="stop-color:#d45500;stop-opacity:1"
         offset="1"
         id="stop2098" />
    </linearGradient>
    <linearGradient
       inkscape:collect="always"
       id="linearGradient2092">
      <stop
         style="stop-color:#ff0000;stop-opacity:1;"
         offset="0"
         id="stop2088" />
      <stop
         style="stop-color:#aa0000;stop-opacity:1"
         offset="1"
         id="stop2090" />
    </linearGradient>
    <linearGradient
       id="linearGradient1939"
       osb:paint="solid">
      <stop
         style="stop-color:#000000;stop-opacity:1;"
         offset="0"
         id="stop1937" />
    </linearGradient>
    <linearGradient
       inkscape:collect="always"
       xlink:href="#linearGradient2092"
       id="linearGradient2094"
       x1="9.8861448"
       y1="3.7101976"
       x2="13.635539"
       y2="3.7101976"
       gradientUnits="userSpaceOnUse" />
    <linearGradient
       inkscape:collect="always"
       xlink:href="#linearGradient2100"
       id="linearGradient2104"
       x1="3.4307206"
       y1="11.181796"
       x2="5.8006516"
       y2="12.305377"
       gradientUnits="userSpaceOnUse" />
    <filter
       style="color-interpolation-filters:sRGB;"
       inkscape:label="Drop Shadow"
       id="filter2427">
      <feFlood
         flood-opacity="0.498039"
         flood-color="rgb(0,0,0)"
         result="flood"
         id="feFlood2417" />
      <feComposite
         in="flood"
         in2="SourceGraphic"
         operator="in"
         result="composite1"
         id="feComposite2419" />
      <feGaussianBlur
         in="composite1"
         stdDeviation="0.2"
         result="blur"
         id="feGaussianBlur2421" />
      <feOffset
         dx="0"
         dy="0"
         result="offset"
         id="feOffset2423" />
      <feComposite
         in="SourceGraphic"
         in2="offset"
         operator="over"
         result="fbSourceGraphic"
         id="feComposite2425" />
      <feColorMatrix
         result="fbSourceGraphicAlpha"
         in="fbSourceGraphic"
         values="0 0 0 -1 0 0 0 0 -1 0 0 0 0 -1 0 0 0 0 1 0"
         id="feColorMatrix2429" />
      <feFlood
         id="feFlood2431"
         flood-opacity="0.498039"
         flood-color="rgb(0,0,0)"
         result="flood"
         in="fbSourceGraphic" />
      <feComposite
         in2="fbSourceGraphic"
         id="feComposite2433"
         in="flood"
         operator="in"
         result="composite1" />
      <feGaussianBlur
         id="feGaussianBlur2435"
         in="composite1"
         stdDeviation="0.3"
         result="blur" />
      <feOffset
         id="feOffset2437"
         dx="0"
         dy="0"
         result="offset" />
      <feComposite
         in2="offset"
         id="feComposite2439"
         in="fbSourceGraphic"
         operator="over"
         result="composite2" />
    </filter>
  </defs>
  <g
     id="g2451"
     transform="matrix(1.1896979,0,0,1.1896979,-1.9801904,-1.3358866)">
    <g
       style="filter:url(#filter2427)"
       id="g2216-9">
      <path
         inkscape:connector-curvature="0"
         d="M 5.0960296,11.141404 4.3306828,10.375261 10.442738,4.2634813 11.208345,5.0290884 Z M 5.8188945,11.864269 3.6078196,9.6523976 9.7201353,3.5408785 11.93121,5.7519534 Z M 5.8191548,11.863733 5.0962917,11.14087 11.208607,5.0293503 11.93121,5.7519532 Z M 4.3306828,10.375261 3.6078197,9.6523978 9.7201355,3.5408784 10.442738,4.2634813 Z m -1.591841,2.068858 0.2867429,0.293107 -0.631621,0.618879 -0.2867429,-0.293107 z M 2.6209604,12.851128 5.4708252,12.068969 3.4038976,10.000486 Z M 13.356143,3.2907783 12.18131,2.1151492 c -0.286739,-0.2867388 -0.770212,-0.2660298 -1.081642,0.0454 L 9.9965198,3.2636972 12.207595,5.474772 13.310742,4.3716242 C 13.621376,4.060194 13.642085,3.575924 13.356142,3.2899817 Z M 5.8188945,11.864269 3.6078197,9.6523977 9.7201354,3.5408783 11.93121,5.7519532 Z"
         style="fill:none;stroke:#000000;stroke-width:0.15609375;stroke-miterlimit:4;stroke-dasharray:none;stroke-opacity:1"
         id="path1367-3-6-6" />
    </g>
    <g
       id="g2216">
      <path
         style="fill:#ffcc00;stroke:none;stroke-width:0.1171875;stroke-miterlimit:4;stroke-dasharray:none;stroke-opacity:1"
         inkscape:connector-curvature="0"
         d="M 5.8188945,11.864269 3.6078197,9.6523977 9.7201354,3.5408783 11.93121,5.7519532 Z"
         id="path1367" />
      <path
         style="fill:url(#linearGradient2094);fill-opacity:1;stroke:#000000;stroke-width:0.15609375;stroke-miterlimit:4;stroke-dasharray:none;stroke-opacity:1"
         inkscape:connector-curvature="0"
         d="M 13.356143,3.2907783 12.18131,2.1151492 c -0.286739,-0.2867388 -0.770212,-0.2660298 -1.081642,0.0454 L 9.9965198,3.2636972 12.207595,5.474772 13.310742,4.3716242 c 0.310634,-0.3114302 0.331343,-0.7957002 0.0454,-1.0816425 z"
         id="path1369" />
      <path
         style="fill:url(#linearGradient2104);fill-opacity:1;stroke:#000000;stroke-width:0.15609375;stroke-miterlimit:4;stroke-dasharray:none;stroke-opacity:1"
         inkscape:connector-curvature="0"
         d="M 2.6209604,12.851128 5.4708252,12.068969 3.4038976,10.000486 Z"
         id="path1371" />
      <path
         style="fill:#241c1c;stroke-width:0.79649669;paint-order:markers stroke fill"
         inkscape:connector-curvature="0"
         d="m 2.7388418,12.444119 0.2867429,0.293107 -0.631621,0.618879 -0.2867429,-0.293107 z"
         id="path1373" />
      <path
         style="fill:#f3c300;fill-opacity:1;stroke:none;stroke-width:0.1171875;stroke-miterlimit:4;stroke-dasharray:none;stroke-opacity:1"
         inkscape:connector-curvature="0"
         d="M 4.3306828,10.375261 3.6078197,9.6523978 9.7201355,3.5408784 10.442738,4.2634813 Z"
         id="path1367-7"
         sodipodi:nodetypes="ccccc" />
      <path
         style="fill:#daaf00;fill-opacity:1;stroke:none;stroke-width:0.1171875;stroke-miterlimit:4;stroke-dasharray:none;stroke-opacity:1"
         inkscape:connector-curvature="0"
         d="M 5.8191548,11.863733 5.0962917,11.14087 11.208607,5.0293503 11.93121,5.7519532 Z"
         id="path1367-7-5"
         sodipodi:nodetypes="ccccc" />
      <path
         inkscape:connector-curvature="0"
         id="path1367-3-6"
         style="fill:none;stroke:#000000;stroke-width:0.15609375;stroke-miterlimit:4;stroke-dasharray:none;stroke-opacity:1"
         d="M 5.0960296,11.141404 4.3306828,10.375261 10.442738,4.2634813 11.208345,5.0290884 Z M 5.8188945,11.864269 3.6078196,9.6523976 9.7201353,3.5408785 11.93121,5.7519534 Z" />
    </g>
  </g>
</svg>

<svg xmlns="http://www.w3.org/2000/svg" xmlns:xlink="http://www.w3.org/1999/xlink" width="32" height="32" viewBox="0 0 15 15">
  <defs/>
  <defs>
    <linearGradient id="icon-edit_svg__b">
      <stop offset="0" stop-color="#fca"/>
      <stop offset="1" stop-color="#d45500"/>
    </linearGradient>
    <linearGradient id="icon-edit_svg__a">
      <stop offset="0" stop-color="red"/>
      <stop offset="1" stop-color="#a00"/>
    </linearGradient>
    <linearGradient id="icon-edit_svg__d" x1="9.886" x2="13.636" y1="3.71" y2="3.71" gradientUnits="userSpaceOnUse" href="#icon-edit_svg__a"/>
    <linearGradient id="icon-edit_svg__e" x1="3.431" x2="5.801" y1="11.182" y2="12.305" gradientUnits="userSpaceOnUse" href="#icon-edit_svg__b"/>
    <filter id="icon-edit_svg__c" color-interpolation-filters="sRGB">
      <feFlood flood-color="#000" flood-opacity=".498" result="flood"/>
      <feComposite in="flood" in2="SourceGraphic" operator="in" result="composite1"/>
      <feGaussianBlur in="composite1" result="blur" stdDeviation=".2"/>
      <feOffset result="offset"/>
      <feComposite in="SourceGraphic" in2="offset" result="fbSourceGraphic"/>
      <feColorMatrix in="fbSourceGraphic" result="fbSourceGraphicAlpha" values="0 0 0 -1 0 0 0 0 -1 0 0 0 0 -1 0 0 0 0 1 0"/>
      <feFlood flood-color="#000" flood-opacity=".498" result="flood"/>
      <feComposite in="flood" in2="fbSourceGraphic" operator="in" result="composite1"/>
      <feGaussianBlur in="composite1" result="blur" stdDeviation=".3"/>
      <feOffset result="offset"/>
      <feComposite in="fbSourceGraphic" in2="offset" result="composite2"/>
    </filter>
  </defs>
  <g filter="url(#icon-edit_svg__c)" transform="matrix(1.1897 0 0 1.1897 -1.98 -1.336)">
    <path fill="none" stroke="#000" stroke-width=".156" d="M5.096 11.141l-.765-.766 6.112-6.112.765.766zm.723.723L3.608 9.652 9.72 3.541l2.211 2.211zm0 0l-.723-.723 6.113-6.112.722.723zm-1.488-1.489l-.723-.723L9.72 3.541l.723.722zm-1.592 2.07l.287.292-.632.62-.287-.294zm-.118.406l2.85-.782L3.404 10zm10.735-9.56l-1.175-1.176c-.286-.287-.77-.266-1.081.046L9.997 3.264l2.21 2.21 1.104-1.102c.31-.312.331-.796.045-1.082zM5.82 11.864L3.608 9.652 9.72 3.541l2.211 2.211z"/>
  </g>
  <path fill="#fc0" d="M4.943 12.779l-2.631-2.631 7.272-7.271 2.63 2.63z"/>
  <path fill="url(#icon-edit_svg__d)" stroke="#000" stroke-width=".156" d="M13.356 3.29l-1.175-1.175c-.286-.287-.77-.266-1.081.046L9.997 3.264l2.21 2.21 1.104-1.102c.31-.312.331-.796.045-1.082z" transform="matrix(1.1897 0 0 1.1897 -1.98 -1.336)"/>
  <path fill="url(#icon-edit_svg__e)" stroke="#000" stroke-width=".156" d="M2.621 12.851l2.85-.782L3.404 10z" transform="matrix(1.1897 0 0 1.1897 -1.98 -1.336)"/>
  <path fill="#241c1c" d="M1.278 13.469l.341.349-.751.736-.341-.349z" paint-order="markers stroke fill"/>
  <path fill="#f3c300" d="M3.172 11.008l-.86-.86 7.272-7.271.86.86z"/>
  <path fill="#daaf00" d="M4.943 12.778l-.86-.86 7.272-7.27.86.86z"/>
  <path fill="none" stroke="#000" stroke-width=".18559319999999999" d="M4.083 11.919l-.911-.911 7.272-7.272.91.911zm.86.86l-2.631-2.631 7.272-7.271 2.63 2.63z"/>
</svg>
